X:1
T:Title
%%score { ( 1 4 ) | ( 2 3 ) }
L:1/8
Q:1/4=112
M:4/4
K:C
V:1 treble nm="Grand Piano"
V:4 treble 
V:2 bass 
V:3 bass 
V:1
 [Ec]4 [Ec]2 [Fc]2 | [Gc]3 [FB] [Ec]2 [CG]2 | [CFA]4 [B,FB]4 | [Ec]8 | [Gd]4 [Gd]2 [Ge]2 | %5
w: S.~B.~Pond * *|||||
 [Gd]3 [^Fc] [GB]2 [CFA]2 |[M:3/4] [B,G]6 |[M:1/4] z2 |[M:4/4] [Ge]3 d c2 G2 | G2 F2 E2 G2 | %10
w: |||||
 [FA]2 B2 c2 d2 | [Ec]4 B2 G2 | [Ge]3 d c2 [CEc]2 | B2 z2 z4 | [Ec]8 |] %15
w: |||||
V:2
 [C,G,]4 [C,G,]2 [F,A,]2 | E,4 z4 | F,4 G,4 | [C,G,]8 | [G,B,]4 [G,B,]2 [C,C]2 | B,3 A, G,2 D,2 | %6
[M:3/4][K:treble] G,6 |[M:1/4] G2 |[M:4/4][K:bass] z2 z F E2 E2 | E2 D2 C2 E2 | %10
 z2[K:treble] D2 E2 F2 | z4 D2 G,2 | C6[K:bass] z2 | z2[K:treble] d2 f2[K:bass] [G,,G,]2 | %14
 [C,G,]8 |] %15
V:3
 x8 | G,3- [D,G,-] [C,G,]2 E,2 | x8 | x8 | x8 | D,6 z2 |[M:3/4][K:treble] x6 |[M:1/4] x2 | %8
[M:4/4][K:bass] C,8- | C,8 | F,,8[K:treble] | G,,6 z2 | z2 z F E2[K:bass] C,2 | %13
 G,6[K:treble][K:bass] z2 | x8 |] %15
V:4
 x8 | x8 | x8 | x8 | x8 | x8 |[M:3/4] x6 |[M:1/4] x2 |[M:4/4] x8 | x8 | x8 | x8 | x8 | %13
 [DF]6 [FB]2 | x8 |] %15

